X: 1
T: Charlie Mulvihill's
M: 4/4
L: 1/8
R: hornpipe
K: Gmaj
G3A BAGF|E2cA F2(3DEF|GFGB dedB|AGFG A2Bc|dedc BAGF|
E2cA F2(3DEF|G2ge dBGB|1 ADFA GDEF:|2 ADFA G2ef||
gBfB eBdc|BGBd gefg|acgc fce^c|(3ded^ce d2ef|
gBfB eBdc|BGBd gdBG|cBce dBGB|1 ADFA Gdef:|2 ADFA G2(3DEF||
